!!!OTL: 'T Lidd vun de Mölleren (1-6), S. 15
!!!id: K0084
**kern
*clefG2
*k[f#c#]
*G:
{8d
=1
4g
8b
4a
8g
=2
4f#
8a
4g}
=3
{8e
=4
4f#
8g
8a
8g
8f#
=5
8e
8d
8e
8d}
8r
=6
{8dd
=7
8dd
8dd
8dd
8ee
8dd
8ee
=8
4dd
8a
4a}
=9
{8a
=10
8dd
8cc#
8b
8a
8b
8a
=11
8g
8f#
8e
4d}
=12
{8d
=13
8g
8f#
8g
8a
8g
8b
=14
4a
8g
4g}
==
*-
!!!minrhy: 8
!!!meters: 6/8 ]  ZZ[5
!!!cut: 'T Lidd vun de Mölleren (1-6), S. 15
!!!reg: Luxemburg
!!!trd: KINTZELE, Guillaume: An der Ucht, Bd. 1, Luxemburg 1926
!!!rhy1: X  X_XX_X  X_XX_
!!!rhy2: X  X_XXXX  XXXX0
!!!key: K0084  08  G 6/8 ]  ZZ[5
!!!mod: HEPTATONIK LYDISCH]  AMBITUS[9
!!!kad: 1-52-51
!!!akz: 12-71_-72-6-5_5652_521-5_1221_
!!!fot: 'a__b__c__cs"aw_
!!!for: 'a__b__c__d__c__
!!!fok: '^a_^d_\__^d_^a_
!! PHRAS[AUFTAKTIG]
!!!fkt: Berufslied
!! KINTZELE
!! PR[29] 2K[2] 2G[6] 3K[14] 3G[8] 4A[3] 4Ü[0] 5A[1] 6K[0] 6G[0]
!! 7K[0] 7G[0] 8A[0] MEHR[0] SI[34] ABS[87] SR[8] SP[26]
!! ST[19] 2k[6] 2g[11] 3k[9] 3g[7] 4d[0] 4ü[1] 5d[2] 6k[0] 6g[0]
!! 7k[0] 7g[0] 8d[0] mehr[0] si[37] dm[-3] sr[17] sp[20]
!! 1F[17] 2F[47] 3F[16] 4F[0] LF[0] 2P[15] 3P[4] 4P[0] TRI[0] DF[5] AB[92]
!! TF[0] U3K[0] U3[0] U4[0] U4Ü[0] U5[2] U6K[0] U6[0] U7K[0] U7[5]
!! N1[14] N2K[0] N2[22] N3K[0] N3[24] N4[13] N4Ü[0] N5[15] N6K[0] N6[6]
!!!n7k: 0] N7[1] O1[0] O2K[0] O2[0] O3K[0] O3[0] HÖ[0
